src/images/std-icons/std-instagram.svg

<svg xmlns="http://www.w3.org/2000/svg" width="512" height="512" viewBox="0 0 512 512">
  <title>instagram</title>
  <path fill="#000" fill-rule="nonzero" d="M256,42.6666667 C138.179253,42.6666667 42.6666667,138.179253 42.6666667,256 C42.6666667,373.820747 138.179253,469.333333 256,469.333333 C373.820747,469.333333 469.333333,373.820747 469.333333,256 C469.333333,199.420482 446.857207,145.158314 406.849447,105.150553 C366.841686,65.1427926 312.579518,42.6666667 256,42.6666667 Z M367.36,302.293333 C367.533141,319.679827 361.044805,336.473168 349.226667,349.226667 C336.49935,361.062394 319.670113,367.488103 302.293333,367.146667 C283.733333,368.213333 228.266667,368.213333 209.706667,367.146667 C192.329887,367.488103 175.50065,361.062394 162.773333,349.226667 C150.87925,336.520706 144.378679,319.6957 144.64,302.293333 C144.64,283.733333 144.64,228.266667 144.64,209.706667 C144.466859,192.320173 150.955195,175.526832 162.773333,162.773333 C175.50065,150.937606 192.329887,144.511897 209.706667,144.853333 C228.266667,144.853333 283.733333,144.853333 302.293333,144.853333 C319.670113,144.511897 336.49935,150.937606 349.226667,162.773333 C361.12075,175.479294 367.621321,192.3043 367.36,209.706667 C368.426667,228.266667 368.426667,283.733333 367.36,302.293333 Z"/>
  <path fill="#000" fill-rule="nonzero" d="M343.466667,189.866667 C339.628734,180.100204 331.899796,172.371266 322.133333,168.533333 C300.398489,164.01542 278.145583,162.507965 256,164.053333 C233.915402,162.584154 211.733682,164.163435 190.08,168.746667 C180.223734,172.44635 172.44635,180.223734 168.746667,190.08 C164.25626,211.746501 162.748971,233.925181 164.266667,256 C162.737465,278.145596 164.24477,300.396295 168.746667,322.133333 C172.516955,331.943925 180.269409,339.696378 190.08,343.466667 C211.732923,348.055289 233.91539,349.634623 256,348.16 C278.155364,349.635279 300.408364,348.056033 322.133333,343.466667 C331.899796,339.628734 339.628734,331.899796 343.466667,322.133333 C347.870947,300.383054 349.377359,278.145551 347.946667,256 C349.369855,233.854461 347.863511,211.617945 343.466667,189.866667 Z M256,313.387067 C224.306219,313.387067 198.613333,287.693781 198.613333,256 C198.613333,224.306219 224.306219,198.613333 256,198.613333 C287.693781,198.613333 313.387067,224.306219 313.387067,256 C313.443629,271.237281 307.415845,285.866924 296.641385,296.641385 C285.866924,307.415845 271.237281,313.443629 256,313.387067 L256,313.387067 Z M315.733333,209.706667 C308.394071,209.590156 302.505742,203.606854 302.506667,196.266667 C302.507354,190.811428 305.805469,185.89776 310.853892,183.830625 C315.902316,181.76349 321.699449,182.953003 325.525903,186.841175 C329.352358,190.729346 330.448971,196.544768 328.30133,201.559473 C326.15369,206.574179 321.187885,209.793258 315.733333,209.706667 L315.733333,209.706667 Z"/>
  <circle cx="256" cy="256" r="37.333" fill="#000" fill-rule="nonzero"/>
</svg>

<svg xmlns="http://www.w3.org/2000/svg" viewBox="0 0 512 512">
  <title>
    instagram
  </title>
  <path d="M256 42.67c-117.82 0-213.33 95.5-213.33 213.33 0 117.82 95.5 213.33 213.33 213.33 117.82 0 213.33-95.5 213.33-213.33A213.33 213.33 0 0 0 256 42.67zm111.36 259.62a68.05 68.05 0 0 1-18.13 46.94 66.99 66.99 0 0 1-46.94 17.92c-18.56 1.06-74.02 1.06-92.58 0a66.99 66.99 0 0 1-46.94-17.92 67.2 67.2 0 0 1-18.13-46.94v-92.58a68.05 68.05 0 0 1 18.13-46.94 66.99 66.99 0 0 1 46.94-17.92h92.58a66.99 66.99 0 0 1 46.94 17.92 67.2 67.2 0 0 1 18.13 46.94c1.07 18.56 1.07 74.02 0 92.58z"/>
  <path d="M343.47 189.87a37.76 37.76 0 0 0-21.34-21.34 242.13 242.13 0 0 0-66.13-4.48 241.07 241.07 0 0 0-65.92 4.7 36.48 36.48 0 0 0-21.33 21.33c-4.5 21.67-6 43.85-4.48 65.92a243.41 243.41 0 0 0 4.48 66.13 37.12 37.12 0 0 0 21.33 21.34 240.64 240.64 0 0 0 65.92 4.69c22.16 1.48 44.4-.1 66.13-4.7a37.76 37.76 0 0 0 21.34-21.33 251.52 251.52 0 0 0 4.48-66.13 252.16 252.16 0 0 0-4.48-66.13zM256 313.39A57.39 57.39 0 1 1 313.39 256 57.18 57.18 0 0 1 256 313.39zm59.73-103.68a13.44 13.44 0 1 1 .43-26.88 13.44 13.44 0 0 1-.43 26.88z"/>
  <circle cx="256" cy="256" r="37.33"/>
</svg>
